X: 20151
Q: "Briskly."
M: C
L: 1/8
K: A
(cd) |\
ecBA dBAG | A2c2 F2zA | E2A2 A2c2 | c2B2 z2(cd) |\
ecBA dBAG | A2c2 F2A2 | E2f2 e2d2 | c2A2 z2(cB) |\
e2(cA) {e}d2BG | A2c2 F3F | E2A2 A2c2 | c2B2 z2e2 |\
e2cA {e}d2BG |
f2d2 z2(af) | e2c2 z2e2 | f2d2 z2(af) | e2c2 z2a2 |\
afed ecBA | G2A2 D2F>E | E2f2 e2d2 | c2A2 z2 |]


